X: 1165
T: Dress Her Out in Fine Clothes.
C:McFadden.
B:O'Neill's Music of Ireland
N:O'Neill's - 1165
Z:Transcribed by Stephen Foy (shf@access.digex.net)
Z:abc 1.6
M:9/8
R:slipjig
K:D
A2 G F2 A d z A | B2 c d z e fdB | A2 G F2 A d z A | Bcd AFD D3 :|
f2 d d2 f a2 f | e2 d c z e gfe | f2 d d2 f a2 f | ecA ABc d2 g |
f2 d d2 f agf | e2 c c2 e gfe | fdf efg agf | edc ABc dcB ||


